TiltedControls/Resources/InputPromptImages/Microsoft/Xbox Series XS-DPadDownRight.svg

<svg xmlns="http://www.w3.org/2000/svg" version="1.1" xmlns:xlink="http://www.w3.org/1999/xlink" x="0px" y="0px" viewBox="0 0 100 100">
<defs>
<linearGradient id="Gradient_1" gradientUnits="userSpaceOnUse" x1="65.11250000000001" y1="49.55" x2="73.6875" y2="58" spreadMethod="pad">
<stop  offset="0%" stop-color="#313131"/>

<stop  offset="100%" stop-color="#D7D7D7"/>
</linearGradient>

<linearGradient id="Gradient_2" gradientUnits="userSpaceOnUse" x1="58.35" y1="50.15" x2="66.95" y2="58.65" spreadMethod="pad">
<stop  offset="0%" stop-color="#4F4F4F"/>

<stop  offset="100%" stop-color="#F5F5F5"/>
</linearGradient>

<linearGradient id="Gradient_3" gradientUnits="userSpaceOnUse" x1="61.912499999999994" y1="54.75" x2="68.1875" y2="61" spreadMethod="pad">
<stop  offset="0%" stop-color="#626262"/>

<stop  offset="100%" stop-color="#FFFFFF"/>
</linearGradient>

<linearGradient id="Gradient_4" gradientUnits="userSpaceOnUse" x1="70.10000000000001" y1="54.4" x2="87.7" y2="54.4" spreadMethod="pad">
<stop  offset="0%" stop-color="#1B1B1B"/>

<stop  offset="100%" stop-color="#404040"/>
</linearGradient>

<g id="Layer1_0_FILL">
<path fill="#1B1B1B" stroke="none" d="
M 32.4 67.6
L 8.25 67.6
Q 11.55234375 75.4775390625 18.05 82 24.5609375 88.486328125 32.4 91.75
L 32.4 67.6
M 28.9 86.1
Q 24.4515625 83.4390625 20.5 79.5 16.5947265625 75.580078125 13.95 71.1
L 28.9 71.1 28.9 86.1
M 32.4 8.3
Q 24.5609375 11.613671875 18.05 18.1 11.5728515625 24.6017578125 8.25 32.45
L 32.4 32.45 32.4 8.3
M 20.5 20.55
Q 24.4515625 16.6609375 28.9 14
L 28.9 28.95 13.95 28.95
Q 16.6146484375 24.49765625 20.5 20.55
M 82 82
Q 88.49765625 75.4775390625 91.75 67.6
L 67.55 67.6 67.55 91.85
Q 75.4568359375 88.5431640625 82 82
M 71.05 86.15
L 71.05 71.1 86.1 71.1
Q 83.4552734375 75.580078125 79.5 79.5 75.5580078125 83.493359375 71.05 86.15
M 91.75 32.45
Q 88.4771484375 24.6017578125 82 18.1 75.4568359375 11.5568359375 67.55 8.25
L 67.55 32.45 91.75 32.45
M 71.05 13.9
Q 75.5580078125 16.6064453125 79.5 20.55 83.4353515625 24.49765625 86.1 28.95
L 71.05 28.95 71.05 13.9 Z"/>

<path fill="#282828" stroke="none" d="
M 20.5 79.5
Q 24.4515625 83.4390625 28.9 86.1
L 28.9 71.1 13.95 71.1
Q 16.5947265625 75.580078125 20.5 79.5
M 28.9 14
Q 24.4515625 16.6609375 20.5 20.55 16.6146484375 24.49765625 13.95 28.95
L 28.9 28.95 28.9 14
M 71.05 71.1
L 71.05 86.15
Q 75.5580078125 83.493359375 79.5 79.5 83.4552734375 75.580078125 86.1 71.1
L 71.05 71.1
M 79.5 20.55
Q 75.5580078125 16.6064453125 71.05 13.9
L 71.05 28.95 86.1 28.95
Q 83.4353515625 24.49765625 79.5 20.55 Z"/>

<path fill="url(#Gradient_1)" stroke="none" d="
M 91.75 67.6
Q 95.15 59.53515625 95.15 50.05 95.15 40.5353515625 91.75 32.45
L 67.55 32.45 67.55 8.25
Q 59.5056640625 4.9 50.05 4.9 40.513671875 4.9 32.4 8.3
L 32.4 32.45 8.25 32.45
Q 4.9 40.5353515625 4.9 50.05 4.9 59.53515625 8.25 67.6
L 32.4 67.6 32.4 91.75
Q 40.513671875 95.2 50.05 95.2 59.5056640625 95.2 67.55 91.85
L 67.55 67.6 91.75 67.6
M 87.65 50.05
Q 87.663671875 55.3408203125 86.4 60.1
L 67.55 60.1
Q 64.444921875 60.1015625 62.25 62.3 60.0515625 64.494921875 60.05 67.6
L 60.05 86.45
Q 55.3123046875 87.715234375 50.05 87.7 44.706640625 87.7189453125 39.9 86.45
L 39.9 67.6
Q 39.8982421875 64.494921875 37.7 62.3 35.5048828125 60.1015625 32.4 60.1
L 13.65 60.1
Q 12.3861328125 55.3408203125 12.4 50.05 12.38515625 44.7318359375 13.65 39.95
L 32.4 39.95
Q 35.5048828125 39.9482421875 37.7 37.75 39.8982421875 35.5548828125 39.9 32.45
L 39.9 13.65
Q 44.706640625 12.380859375 50.05 12.4 55.3123046875 12.3845703125 60.05 13.6
L 60.05 32.45
Q 60.0515625 35.5548828125 62.25 37.75 64.444921875 39.9482421875 67.55 39.95
L 86.4 39.95
Q 87.6646484375 44.7318359375 87.65 50.05 Z"/>

<path fill="url(#Gradient_2)" stroke="none" d="
M 86.4 60.1
Q 87.663671875 55.3408203125 87.65 50.05 87.6646484375 44.7318359375 86.4 39.95
L 67.55 39.95
Q 64.444921875 39.9482421875 62.25 37.75 60.0515625 35.5548828125 60.05 32.45
L 60.05 13.6
Q 55.3123046875 12.3845703125 50.05 12.4 44.706640625 12.380859375 39.9 13.65
L 39.9 32.45
Q 39.8982421875 35.5548828125 37.7 37.75 35.5048828125 39.9482421875 32.4 39.95
L 13.65 39.95
Q 12.38515625 44.7318359375 12.4 50.05 12.3861328125 55.3408203125 13.65 60.1
L 32.4 60.1
Q 35.5048828125 60.1015625 37.7 62.3 39.8982421875 64.494921875 39.9 67.6
L 39.9 86.45
Q 44.706640625 87.7189453125 50.05 87.7 55.3123046875 87.715234375 60.05 86.45
L 60.05 67.6
Q 60.0515625 64.494921875 62.25 62.3 64.444921875 60.1015625 67.55 60.1
L 86.4 60.1 Z"/>
</g>

<path id="Layer1_0_1_STROKES" stroke="#1B1B1B" stroke-width="5" stroke-linejoin="round" stroke-linecap="round" fill="none" d="
M 67.55 8.25
Q 75.4568359375 11.5568359375 82 18.1 88.4771484375 24.6017578125 91.775 32.45
M 91.775 67.6
Q 88.49765625 75.4775390625 82 82 75.4568359375 88.5431640625 67.55 91.85 59.5056640625 95.2 50.05 95.2 40.513671875 95.2 32.4 91.775 24.5609375 88.486328125 18.05 82 11.55234375 75.4775390625 8.275 67.6 4.9 59.53515625 4.9 50.05 4.9 40.5353515625 8.275 32.45 11.5728515625 24.6017578125 18.05 18.1 24.5609375 11.613671875 32.4 8.325 40.513671875 4.9 50.05 4.9 59.5056640625 4.9 67.55 8.25
L 67.55 32.45
M 32.4 8.325
L 32.4 32.45 8.275 32.45
M 32.4 91.775
L 32.4 67.6 8.275 67.6
M 67.55 67.6
L 67.55 91.85"/>

<path id="Layer1_0_2_STROKES" stroke="url(#Gradient_3)" stroke-width="4" stroke-linejoin="round" stroke-linecap="round" fill="none" d="
M 86.4 39.95
Q 87.6646484375 44.7318359375 87.65 50.05 87.663671875 55.3408203125 86.4 60.1
L 67.55 60.1
Q 64.444921875 60.1015625 62.25 62.3 60.0515625 64.494921875 60.05 67.6
L 60.05 86.475
Q 55.3123046875 87.715234375 50.05 87.7 44.706640625 87.7189453125 39.9 86.45
L 39.9 67.6
Q 39.8982421875 64.494921875 37.7 62.3 35.5048828125 60.1015625 32.4 60.1
L 13.65 60.1
Q 12.3861328125 55.3408203125 12.4 50.05 12.38515625 44.7318359375 13.65 39.95
L 32.4 39.95
Q 35.5048828125 39.9482421875 37.7 37.75 39.8982421875 35.5548828125 39.9 32.45
L 39.9 13.65
Q 44.706640625 12.380859375 50.05 12.4 55.3123046875 12.3845703125 60.05 13.625
L 60.05 32.45
Q 60.0515625 35.5548828125 62.25 37.75 64.444921875 39.9482421875 67.55 39.95
L 86.4 39.95 Z"/>

<path id="Layer1_0_3_STROKES" stroke="url(#Gradient_4)" stroke-width="5" stroke-linejoin="round" stroke-linecap="round" fill="none" d="
M 91.775 32.45
Q 95.15 40.5353515625 95.15 50.05 95.15 59.53515625 91.775 67.6
M 91.775 32.45
L 67.55 32.45
M 91.775 67.6
L 67.55 67.6"/>

</defs>

<g transform="matrix( 1, 0, 0, 1, 0,0) ">
<use xlink:href="#Layer1_0_FILL"/>

<use xlink:href="#Layer1_0_1_STROKES"/>

<use xlink:href="#Layer1_0_2_STROKES"/>

<use xlink:href="#Layer1_0_3_STROKES"/>
</g>

<g transform="matrix( 1, 0, 0, 1, -3.4,-28) ">
<clipPath id="Mask_Mask_1">
<rect x="3.8" y="-2" width="99.2" height="20.8" fill="#FFFFFF" stroke="none"/>
</clipPath>

<text clip-path="url(#Mask_Mask_1)" writing-mode="lr"><tspan x="5.85" y="13.6" baseline-shift="0%" kerning="auto" font-family="Arial_Regular" font-size="15" fill="#999999" xml:space="preserve">Xbox Series X</tspan></text>
</g>
</svg>

<?xml version="1.0" encoding="utf-8"?>
<!-- Generator: Adobe Illustrator 24.1.2, SVG Export Plug-In . SVG Version: 6.00 Build 0)  -->
<svg version="1.1" id="Layer_1" xmlns="http://www.w3.org/2000/svg" xmlns:xlink="http://www.w3.org/1999/xlink" x="0px" y="0px"
	 viewBox="0 0 100 100" style="enable-background:new 0 0 100 100;" xml:space="preserve">
<g transform="matrix( 1, 0, 0, 1, 0,0) ">
	<g>
		<g id="Layer1_0_FILL">
			<path style="fill:#1B1B1B;" d="M32.4,67.6H8.3c2.2,5.3,5.5,10.1,9.8,14.4c4.3,4.3,9.1,7.6,14.4,9.8V67.6 M28.9,86.1
				c-3-1.8-5.8-4-8.4-6.6c-2.6-2.6-4.8-5.4-6.6-8.4h14.9V86.1 M32.4,8.3c-5.2,2.2-10,5.5-14.4,9.8c-4.3,4.3-7.6,9.1-9.8,14.4h24.2
				V8.3 M20.5,20.5c2.6-2.6,5.4-4.8,8.4-6.5v15H13.9C15.7,26,17.9,23.2,20.5,20.5 M82,82c4.3-4.3,7.6-9.1,9.8-14.4H67.6v24.3
				C72.8,89.6,77.6,86.4,82,82 M71.1,86.2V71.1h15c-1.8,3-4,5.8-6.6,8.4C76.9,82.2,74.1,84.4,71.1,86.2 M91.8,32.5
				c-2.2-5.2-5.4-10-9.8-14.4c-4.4-4.4-9.2-7.6-14.4-9.9v24.2H91.8 M71.1,13.9c3,1.8,5.8,4,8.4,6.6c2.6,2.6,4.8,5.4,6.6,8.4h-15
				V13.9z"/>
			<path style="fill:#282828;" d="M20.5,79.5c2.6,2.6,5.4,4.8,8.4,6.6v-15H13.9C15.7,74.1,17.9,76.9,20.5,79.5 M28.9,14
				c-3,1.8-5.8,4-8.4,6.5c-2.6,2.6-4.8,5.4-6.6,8.4h14.9V14 M71.1,71.1v15.1c3-1.8,5.8-4,8.4-6.7c2.6-2.6,4.8-5.4,6.6-8.4H71.1
				 M79.5,20.5c-2.6-2.6-5.4-4.8-8.4-6.6V29h15C84.3,26,82.1,23.2,79.5,20.5z"/>
			
				<linearGradient id="SVGID_1_" gradientUnits="userSpaceOnUse" x1="57.4299" y1="44.6538" x2="66.0049" y2="36.2038" gradientTransform="matrix(1 0 0 -1 0 102)">
				<stop  offset="0" style="stop-color:#313131"/>
				<stop  offset="1" style="stop-color:#D7D7D7"/>
			</linearGradient>
			<path style="fill:url(#SVGID_1_);" d="M91.8,67.6c2.3-5.4,3.4-11.2,3.4-17.5c0-6.3-1.1-12.2-3.4-17.6H67.6V8.3
				C62.2,6,56.4,4.9,50,4.9c-6.4,0-12.2,1.1-17.6,3.4v24.2H8.3C6,37.8,4.9,43.7,4.9,50c0,6.3,1.1,12.2,3.3,17.5h24.2v24.2
				c5.4,2.3,11.3,3.4,17.6,3.4c6.3,0,12.1-1.1,17.5-3.3V67.6H91.8 M87.7,50c0,3.5-0.4,6.9-1.3,10H67.6c-2.1,0-3.8,0.7-5.3,2.2
				c-1.5,1.5-2.2,3.2-2.2,5.3v18.8c-3.2,0.8-6.5,1.3-10,1.3c-3.6,0-6.9-0.4-10.1-1.3V67.6c0-2.1-0.7-3.8-2.2-5.3
				c-1.5-1.5-3.2-2.2-5.3-2.2H13.6c-0.8-3.2-1.3-6.5-1.3-10c0-3.5,0.4-6.9,1.3-10.1h18.8c2.1,0,3.8-0.7,5.3-2.2
				c1.5-1.5,2.2-3.2,2.2-5.3V13.6c3.2-0.8,6.6-1.3,10.1-1.3c3.5,0,6.8,0.4,10,1.2v18.9c0,2.1,0.7,3.8,2.2,5.3
				c1.5,1.5,3.2,2.2,5.3,2.2h18.8C87.2,43.1,87.7,46.5,87.7,50z"/>
			
				<linearGradient id="SVGID_2_" gradientUnits="userSpaceOnUse" x1="54.274" y1="47.726" x2="62.874" y2="39.226" gradientTransform="matrix(1 0 0 -1 0 102)">
				<stop  offset="0" style="stop-color:#4F4F4F"/>
				<stop  offset="1" style="stop-color:#F5F5F5"/>
			</linearGradient>
			<path style="fill:url(#SVGID_2_);" d="M86.4,60.1c0.8-3.2,1.3-6.5,1.3-10c0-3.5-0.4-6.9-1.3-10.1H67.6c-2.1,0-3.8-0.7-5.3-2.2
				c-1.5-1.5-2.2-3.2-2.2-5.3V13.6c-3.2-0.8-6.5-1.2-10-1.2c-3.6,0-6.9,0.4-10.1,1.3v18.8c0,2.1-0.7,3.8-2.2,5.3
				c-1.5,1.5-3.2,2.2-5.3,2.2H13.6c-0.8,3.2-1.3,6.6-1.3,10.1c0,3.5,0.4,6.9,1.3,10h18.8c2.1,0,3.8,0.7,5.3,2.2
				c1.5,1.5,2.2,3.2,2.2,5.3v18.8c3.2,0.8,6.6,1.3,10.1,1.3c3.5,0,6.8-0.4,10-1.3V67.6c0-2.1,0.7-3.8,2.2-5.3
				c1.5-1.5,3.2-2.2,5.3-2.2H86.4z"/>
		</g>
	</g>
	<g>
		<path id="Layer1_0_1_STROKES" style="fill:none;stroke:#1B1B1B;stroke-width:5;stroke-linecap:round;stroke-linejoin:round;" d="
			M67.6,8.3c5.3,2.2,10.1,5.5,14.4,9.9c4.3,4.3,7.6,9.1,9.8,14.4 M91.8,67.6C89.6,72.9,86.3,77.7,82,82c-4.4,4.4-9.2,7.6-14.4,9.8
			c-5.4,2.2-11.2,3.3-17.5,3.3c-6.4,0-12.2-1.1-17.6-3.4c-5.2-2.2-10-5.5-14.4-9.8c-4.3-4.3-7.6-9.1-9.8-14.4
			C6,62.2,4.9,56.4,4.9,50c0-6.3,1.1-12.2,3.4-17.6c2.2-5.2,5.5-10,9.8-14.4c4.3-4.3,9.1-7.6,14.4-9.8C37.8,6,43.7,4.9,50,4.9
			c6.3,0,12.1,1.1,17.5,3.3v24.2 M32.4,8.3v24.1H8.3 M32.4,91.8V67.6H8.3 M67.6,67.6v24.3"/>
	</g>
	<g>
		
			<linearGradient id="Layer1_0_2_STROKES_1_" gradientUnits="userSpaceOnUse" x1="58.3238" y1="43.647" x2="64.5988" y2="37.397" gradientTransform="matrix(1 0 0 -1 0 102)">
			<stop  offset="0" style="stop-color:#626262"/>
			<stop  offset="1" style="stop-color:#FFFFFF"/>
		</linearGradient>
		
			<path id="Layer1_0_2_STROKES" style="fill:none;stroke:url(#Layer1_0_2_STROKES_1_);stroke-width:4;stroke-linecap:round;stroke-linejoin:round;" d="
			M86.4,40c0.8,3.2,1.3,6.6,1.3,10.1c0,3.5-0.4,6.9-1.3,10H67.6c-2.1,0-3.8,0.7-5.3,2.2c-1.5,1.5-2.2,3.2-2.2,5.3v18.9
			c-3.2,0.8-6.5,1.2-10,1.2c-3.6,0-6.9-0.4-10.1-1.3V67.6c0-2.1-0.7-3.8-2.2-5.3c-1.5-1.5-3.2-2.2-5.3-2.2H13.6
			c-0.8-3.2-1.3-6.5-1.3-10c0-3.5,0.4-6.9,1.3-10.1h18.8c2.1,0,3.8-0.7,5.3-2.2c1.5-1.5,2.2-3.2,2.2-5.3V13.6
			c3.2-0.8,6.6-1.3,10.1-1.3c3.5,0,6.8,0.4,10,1.2v18.8c0,2.1,0.7,3.8,2.2,5.3c1.5,1.5,3.2,2.2,5.3,2.2H86.4z"/>
	</g>
	<g>
		
			<linearGradient id="Layer1_0_3_STROKES_1_" gradientUnits="userSpaceOnUse" x1="70.1" y1="51.975" x2="87.7" y2="51.975" gradientTransform="matrix(1 0 0 -1 0 102)">
			<stop  offset="0" style="stop-color:#1B1B1B"/>
			<stop  offset="1" style="stop-color:#404040"/>
		</linearGradient>
		
			<path id="Layer1_0_3_STROKES" style="fill:none;stroke:url(#Layer1_0_3_STROKES_1_);stroke-width:5;stroke-linecap:round;stroke-linejoin:round;" d="
			M91.8,32.5c2.3,5.4,3.4,11.3,3.4,17.6c0,6.3-1.1,12.2-3.4,17.5 M91.8,32.5H67.6 M91.8,67.6H67.6"/>
	</g>
</g>
</svg>
